X: 17758
T: Hommage à Gilles Laprise
R: reel
M: 4/4
K: Dmajor
fg|:a3 a gfeg|fefg afdf|edef gece|dcde fdAd|
a3 a gfeg|fefg afdf|edef gece|1 dfec d2 fg:|2 dfec d3 A||
|:Afed B3 B|Bgfe a3 A|Afed cAce|ageg fafd|
Afed B3 B|Bgfe a3 A|Afed cAce|1 agec d3 A:|2 agec d2 fg||

